frontend/public/assets/material-icons/folder-video.svg

<svg xmlns="http://www.w3.org/2000/svg" viewBox="0 0 32 32"><path fill="#ff9800" d="m13.844 7.536-1.288-1.072A2 2 0 0 0 11.276 6H4a2 2 0 0 0-2 2v16a2 2 0 0 0 2 2h24a2 2 0 0 0 2-2V10a2 2 0 0 0-2-2H15.124a2 2 0 0 1-1.28-.464"/><path fill="#ffe0b2" d="m28 14 2 4h-2l-2-4h-2l2 4h-2l-2-4h-2l2 4h-2l-2-4h-2a2 2 0 0 0-2 2v10a2 2 0 0 0 2 2h14a2 2 0 0 0 2-2V14.5a.5.5 0 0 0-.5-.5Z"/></svg>

<svg xmlns="http://www.w3.org/2000/svg" viewBox="0 0 32 32">
  <path d="M13.84376,7.53645l-1.28749-1.0729A2,2,0,0,0,11.27591,6H4A2,2,0,0,0,2,8V24a2,2,0,0,0,2,2H28a2,2,0,0,0,2-2V10a2,2,0,0,0-2-2H15.12412A2,2,0,0,1,13.84376,7.53645Z" style="fill: #ff9800"/>
  <path d="M28,14l2,4H28l-2-4H24l2,4H24l-2-4H20l2,4H20l-2-4H16a2,2,0,0,0-2,2V26a2,2,0,0,0,2,2H30a2,2,0,0,0,2-2V14.5a.5.5,0,0,0-.5-.5Z" style="fill: #ffe0b2;fill-rule: evenodd"/>
</svg>
